X:12
T:Maiden's Choice, The
M:6/8
L:1/8
B:Thompson's Compleat Collection of 200 Favourite Country Dances, vol. 2 (London, 1765)
Z:Transcribed and edited by Flynn Titford-Mock, 2007
Z:abc's:AK/Fiddler's Companion
K:D
D | D2F F2A | dfe d2B | Add Gdd | FdF EDC | D2F F2A | dfe | e2d | cBA EF^G | AEC A,2 :| 
|: A | A2c c2e | afg afg | A2c c2e | gef g2f | fed cBA | BAG FED | CDE A,B,C | D2 D D2 :||



